src/activities/babymatch/resource/images/apple.svg

<?xml version="1.0" encoding="UTF-8" standalone="no"?>
<svg
   xmlns:dc="http://purl.org/dc/elements/1.1/"
   xmlns:cc="http://creativecommons.org/ns#"
   xmlns:rdf="http://www.w3.org/1999/02/22-rdf-syntax-ns#"
   xmlns:svg="http://www.w3.org/2000/svg"
   xmlns="http://www.w3.org/2000/svg"
   height="100"
   width="100"
   version="1.1"
   id="svg2">
  <metadata
     id="metadata8">
    <rdf:RDF>
      <cc:Work
         rdf:about="">
        <dc:format>image/svg+xml</dc:format>
        <dc:type
           rdf:resource="http://purl.org/dc/dcmitype/StillImage" />
        <dc:title></dc:title>
        <dc:date>2015</dc:date>
        <dc:creator>
          <cc:Agent>
            <dc:title>Timothée Giet</dc:title>
          </cc:Agent>
        </dc:creator>
        <cc:license
           rdf:resource="http://creativecommons.org/licenses/by-sa/4.0/" />
      </cc:Work>
      <cc:License
         rdf:about="http://creativecommons.org/licenses/by-sa/4.0/">
        <cc:permits
           rdf:resource="http://creativecommons.org/ns#Reproduction" />
        <cc:permits
           rdf:resource="http://creativecommons.org/ns#Distribution" />
        <cc:requires
           rdf:resource="http://creativecommons.org/ns#Notice" />
        <cc:requires
           rdf:resource="http://creativecommons.org/ns#Attribution" />
        <cc:permits
           rdf:resource="http://creativecommons.org/ns#DerivativeWorks" />
        <cc:requires
           rdf:resource="http://creativecommons.org/ns#ShareAlike" />
      </cc:License>
    </rdf:RDF>
  </metadata>
  <defs
     id="defs6" />
  <path
     d="m 39.034514,15.328987 c 0,0 21.152899,-3.92518 25.084009,-3.413182 15.726701,1.365191 28.464974,12.626439 31.636611,27.476261 5.086836,23.816906 -14.565884,44.211383 -18.34367,49.323419 -3.777787,5.112037 -11.685273,6.03422 -21.340633,8.020754 -9.65536,1.986536 -20.23006,-0.250457 -24.337595,-2.730383 C -13.194055,57.482383 4.9641439,23.350561 20.876316,18.912152 30.799089,15.840164 39.034514,15.328166 39.034514,15.328166 Z"
     id="path866"
     style="fill:#758822;fill-opacity:1;fill-rule:evenodd;stroke:none;stroke-width:2.1548574;stroke-linejoin:round" />
  <path
     d="m 40.18057,18.007002 c 0,0 19.135977,-3.530404 22.692254,-3.069902 14.227164,1.227888 25.750114,11.353124 28.620069,24.712839 C 96.094164,61.068968 78.315862,79.414764 74.898286,84.012658 71.480712,88.610552 64.327203,89.439987 55.592478,91.226724 46.857754,93.013462 37.291349,91.001458 33.575467,88.770951 -7.068017,55.920823 9.3588015,25.221807 23.753752,21.229791 32.730391,18.466768 40.18057,18.006264 40.18057,18.006264 Z"
     id="path866-3"
     style="fill:#b6d823;fill-opacity:1;fill-rule:evenodd;stroke:none;stroke-width:2.1548574;stroke-linejoin:round" />
  <path
     d="M 45.13927,25.683498 C 44.390595,21.587926 53.073868,2.8468319 55.693101,2.5060474 c 1.685084,-0.1705975 9.171835,3.3068411 4.774783,5.4843718 0,1.8145744 -1.685085,-0.3414004 -2.809229,0.3414004 -2.619232,2.5599894 -6.998189,10.5595964 -8.495539,16.8733474 z"
     id="path867"
     style="fill:#51391b;fill-opacity:1;fill-rule:evenodd;stroke:none;stroke-width:2.1548574;stroke-linejoin:round" />
  <path
     d="m 46.535852,25.567116 c -0.748675,-4.095573 6.654399,-21.2073196 9.273631,-21.5481041 1.685084,-0.1705975 5.447615,1.7938769 4.076492,2.9239708 0,1.8145749 -1.685086,-0.6905459 -2.809229,-0.00775 -2.619232,2.5599929 -7.696481,11.7234193 -9.193831,18.0371703 z"
     id="path867-7"
     style="fill:#634217;fill-opacity:1;fill-rule:evenodd;stroke:none;stroke-width:2.1548574;stroke-linejoin:round" />
  <path
     style="color:#000000;font-style:normal;font-variant:normal;font-weight:normal;font-stretch:normal;font-size:medium;line-height:normal;font-family:sans-serif;text-indent:0;text-align:start;text-decoration:none;text-decoration-line:none;text-decoration-style:solid;text-decoration-color:#000000;letter-spacing:normal;word-spacing:normal;text-transform:none;writing-mode:lr-tb;direction:ltr;baseline-shift:baseline;text-anchor:start;white-space:normal;clip-rule:nonzero;display:inline;overflow:visible;visibility:visible;opacity:1;isolation:auto;mix-blend-mode:normal;color-interpolation:sRGB;color-interpolation-filters:linearRGB;solid-color:#000000;solid-opacity:1;fill:#758822;fill-opacity:1;fill-rule:nonzero;stroke:none;stroke-width:2.1548574;stroke-linecap:butt;stroke-linejoin:round;stroke-miterlimit:4;stroke-dasharray:none;stroke-dashoffset:0;stroke-opacity:1;color-rendering:auto;image-rendering:auto;shape-rendering:auto;text-rendering:auto;enable-background:accumulate"
     d="m 46.808936,24.972031 c -7.341179,1.116255 -10.037556,-1.038905 -15.965821,-0.766239 8.551499,2.7421 12.335501,3.486639 16.282559,2.89805 3.947056,-0.58859 7.760775,-2.380805 16.872409,-4.584153 -4.633348,-1.205623 -12.937571,1.765251 -17.189147,2.452342 z"
     id="path871" />
</svg>

<svg xmlns:dc="http://purl.org/dc/elements/1.1/" xmlns:cc="http://creativecommons.org/ns#" xmlns:rdf="http://www.w3.org/1999/02/22-rdf-syntax-ns#" xmlns="http://www.w3.org/2000/svg" height="100" width="100"><metadata><rdf:RDF><cc:Work><dc:format>image/svg+xml</dc:format><dc:type rdf:resource="http://purl.org/dc/dcmitype/StillImage"/><dc:title/><dc:date>2015</dc:date><dc:creator><cc:Agent><dc:title>Timothée Giet</dc:title></cc:Agent></dc:creator><cc:license rdf:resource="http://creativecommons.org/licenses/by-sa/4.0/"/></cc:Work><cc:License rdf:about="http://creativecommons.org/licenses/by-sa/4.0/"><cc:permits rdf:resource="http://creativecommons.org/ns#Reproduction"/><cc:permits rdf:resource="http://creativecommons.org/ns#Distribution"/><cc:requires rdf:resource="http://creativecommons.org/ns#Notice"/><cc:requires rdf:resource="http://creativecommons.org/ns#Attribution"/><cc:permits rdf:resource="http://creativecommons.org/ns#DerivativeWorks"/><cc:requires rdf:resource="http://creativecommons.org/ns#ShareAlike"/></cc:License></rdf:RDF></metadata><path d="M39.035 15.329s21.152-3.925 25.084-3.413c15.726 1.365 28.464 12.626 31.636 27.476 5.087 23.817-14.566 44.211-18.344 49.323-3.777 5.113-11.685 6.035-21.34 8.021-9.656 1.987-20.23-.25-24.338-2.73C-13.194 57.482 4.964 23.35 20.876 18.912c9.923-3.072 18.159-3.584 18.159-3.584z" style="fill:#758822;fill-opacity:1;fill-rule:evenodd;stroke:none;stroke-width:2.1548574;stroke-linejoin:round"/><path d="M40.18 18.007s19.137-3.53 22.693-3.07C77.1 16.165 88.623 26.29 91.493 39.65c4.601 21.419-13.177 39.765-16.595 44.363-3.417 4.598-10.57 5.427-19.306 7.214-8.734 1.786-18.3-.226-22.017-2.456-40.643-32.85-24.216-63.55-9.821-67.541 8.976-2.763 16.427-3.224 16.427-3.224z" style="fill:#b6d823;fill-opacity:1;fill-rule:evenodd;stroke:none;stroke-width:2.1548574;stroke-linejoin:round"/><path d="M45.14 25.683c-.75-4.095 7.934-22.836 10.553-23.177 1.685-.17 9.172 3.307 4.775 5.484 0 1.815-1.685-.341-2.81.342-2.619 2.56-6.998 10.56-8.495 16.873z" style="fill:#51391b;fill-opacity:1;fill-rule:evenodd;stroke:none;stroke-width:2.1548574;stroke-linejoin:round"/><path d="M46.536 25.567C45.787 21.472 53.19 4.36 55.809 4.02c1.686-.17 5.448 1.794 4.077 2.924 0 1.815-1.685-.69-2.81-.008-2.618 2.56-7.696 11.724-9.193 18.037z" style="fill:#634217;fill-opacity:1;fill-rule:evenodd;stroke:none;stroke-width:2.1548574;stroke-linejoin:round"/><path style="color:#000;font-style:normal;font-variant:normal;font-weight:400;font-stretch:normal;font-size:medium;line-height:normal;font-family:sans-serif;text-indent:0;text-align:start;text-decoration:none;text-decoration-line:none;text-decoration-style:solid;text-decoration-color:#000;letter-spacing:normal;word-spacing:normal;text-transform:none;writing-mode:lr-tb;direction:ltr;baseline-shift:baseline;text-anchor:start;white-space:normal;clip-rule:nonzero;display:inline;overflow:visible;visibility:visible;opacity:1;isolation:auto;mix-blend-mode:normal;color-interpolation:sRGB;color-interpolation-filters:linearRGB;solid-color:#000;solid-opacity:1;fill:#758822;fill-opacity:1;fill-rule:nonzero;stroke:none;stroke-width:2.1548574;stroke-linecap:butt;stroke-linejoin:round;stroke-miterlimit:4;stroke-dasharray:none;stroke-dashoffset:0;stroke-opacity:1;color-rendering:auto;image-rendering:auto;shape-rendering:auto;text-rendering:auto;enable-background:accumulate" d="M46.809 24.972c-7.341 1.116-10.038-1.039-15.966-.766 8.552 2.742 12.336 3.486 16.283 2.898 3.947-.589 7.76-2.381 16.872-4.584-4.633-1.206-12.937 1.765-17.19 2.452z"/></svg>
